X: 100401
T: SIR RONALD McDONALD'S REEL
R: reel
B: K\"ohler's Violin Repository, v.3, 1885 p.261 #3
F: http://www.archive.org/details/klersviolinrepos03rugg
Z: 2012 John Chambers <jc:trillian.mit.edu>
M: C|
L: 1/8
K: Gm
uB | B/B/B (dc) d3g | fdcA FGAF | G/G/G (BG) Bddf | AFcA G3 :|
uf | (ga)gf (cf)ga | (fd)cA (Ac)Af | (ga)gf (df)ga | fdcA G3 ||
(f |  ga)gf dfga | fc (d/c/B/A/) (cd)fa | gafg dfcf | AFcA "_Fine."G3 "^D.C."|]

%%sep 2 1 500

